X: 200
T: They Are Charging Them
C: Teton Sioux band 1911-1914
N: Derived from sioux195.krn
O: South Dakota, U.S.A.
N: Teton Sioux Music by Frances Densmore, 1918
Z: transcribed to **kern format by Craig Sapp
L: 1/8
M: 3/4
Q: 1/4=58
K: Ab clef=treble
%%linebreak <none>
F [I:setbarnb 1]| 
(3A F F F> F F3/ F/ | 
F6 ||  
[M:2/4]F< E E/ C3/ ||  
[M:3/4](3E E C C> C C3/ C/ | 
E< C-C4[K:clef=bass] ||  
[M:2/4]E< B, A,/ A,3/ ||  
[M:3/4](3A, F, F, F,> F,F,2 ||  
[M:2/4]A,< A, F,/ F,3/ ||  
[M:3/4](3A, A, F, F,> F,F,2 | 
A,< F,-F,4 ||  
[M:2/4]A,< E, C,/ C,3/ ||  
[M:3/4](3E, E, C, C,> C,C,2 | 
E,< C,-C,4 ||  
[M:2/4]E,< B,, A,,/ A,,3/ ||  
[M:3/4](3A,, A,, F,, F,,> F,,F,,2 ||  
[M:2/4]A,,< A,, F,,/ F,,3/ ||  
[M:3/4](3A,, A,, F,, F,,< F,,F,,2 |]  



